icons/folder-vue-directives-open.svg

<svg fill="none" version="1.1" viewBox="0 0 24 24" xmlns="http://www.w3.org/2000/svg"><path d="m19 20h-15a2 2 0 0 1-2-2v-12c0-1.11.89-2 2-2h6l2 2h7c1.097 0 2 .903 2 2h-17v10l2.14-8h17.07l-2.28 8.5c-.23.87-1.01 1.5-1.93 1.5z" style="fill:#45403d"/><g transform="translate(.54032 2.7763)"><g transform="matrix(.69572 0 0 .69572 7.9184 3.586)" style="clip-rule:evenodd;fill-rule:evenodd;stroke-linejoin:round;stroke-miterlimit:1.4142"><path transform="matrix(1.4374,0,0,1.4374,-12.158,-9.1443)" d="m9.7246 9.25 7.1035 12.256 7.1016-12.197v-.058594h-2.7617l-4.2988 7.3848-4.2793-7.3848h-2.8652z" style="fill:#a9b665;stroke-width:.69572"/><path d="m5.9351 4.1512 6.1521 10.617 6.1809-10.617h-3.7228l-2.4337 4.1783-2.4226-4.1783z" style="fill:#68948a"/></g></g></svg>

<svg fill="none" viewBox="0 0 24 24" xmlns="http://www.w3.org/2000/svg"><path d="M19 20H4a2 2 0 0 1-2-2V6c0-1.11.89-2 2-2h6l2 2h7c1.097 0 2 .903 2 2H4v10l2.14-8h17.07l-2.28 8.5c-.23.87-1.01 1.5-1.93 1.5z" style="fill:#00838f"/><g style="clip-rule:evenodd;fill-rule:evenodd;stroke-linejoin:round;stroke-miterlimit:1.4142"><path transform="scale(1.00003)" d="m9.725 9.25 7.103 12.256L23.93 9.309V9.25h-2.762l-4.299 7.385-4.28-7.385H9.726z" style="fill:#41b883;stroke-width:.69572"/><path d="m5.935 4.151 6.152 10.617 6.181-10.617h-3.723L12.112 8.33 9.689 4.151z" style="fill:#35495e" transform="translate(8.459 6.362) scale(.69572)"/></g></svg>
